svg/vomiting_negative.svg

<svg width="48" height="48" viewBox="0 0 48 48" fill="none" xmlns="http://www.w3.org/2000/svg">
<path fill-rule="evenodd" clip-rule="evenodd" d="M0.132808 0.000189998C0.0593613 0.000189998 0 0.0595513 0 0.132998V47.8664C0 47.9404 0.0593613 47.9994 0.132808 47.9994H47.8662C47.9402 47.9994 47.9992 47.9404 47.9992 47.8664V0.132998C47.9992 0.0593613 47.9402 0 47.8662 0H0.132808V0.000189998ZM37.4013 4.00014C40.8543 4.00064 43.6533 6.7991 43.6533 10.2521C43.6543 13.706 40.8553 16.505 37.4013 16.506C33.9474 16.506 31.1454 13.706 31.1454 10.2521C31.1464 6.7983 33.9484 3.99954 37.4013 4.00014ZM23.1925 14.018C24.3855 14.013 25.5815 14.102 26.8065 14.258C30.4224 15.161 33.8814 18.802 33.9624 23.0449C33.9524 27.4268 34.0004 31.2238 33.9544 41.6737C33.9524 44.8866 28.6325 44.6906 28.6615 41.6737C28.4665 38.7217 28.5725 32.3468 28.6244 27.6308C28.6615 24.2269 27.2455 23.7239 26.4545 23.6859C6.00773 21.5829 23.6175 32.7148 26.7495 38.9097C27.5185 40.7507 26.7405 43.2866 25.1015 43.8516C23.4465 43.8716 8.4967 44.0636 7.19672 43.9836C2.93797 43.9596 3.01367 37.7127 7.07392 37.7127H17.5938C13.6048 33.7968 10.3069 31.4288 7.10592 26.9649C5.40544 24.7109 7.08742 21.9329 9.1132 19.9219C12.0689 17.014 15.6638 15.103 19.6001 14.348C20.811 14.123 22 14.023 23.193 14.018H23.1925ZM37.1883 16.934C37.1943 16.933 37.2013 16.933 37.2063 16.934C37.3323 16.933 37.4333 17.036 37.4333 17.162C37.4323 17.287 37.3313 17.389 37.2063 17.389C37.0813 17.389 36.9783 17.287 36.9783 17.162C36.9773 17.042 37.0693 16.942 37.1883 16.934ZM37.9503 17.586C38.0763 17.586 38.1793 17.688 38.1793 17.814C38.1793 17.941 38.0763 18.043 37.9503 18.043C37.8243 18.043 37.7213 17.941 37.7223 17.814C37.7213 17.688 37.8243 17.586 37.9503 17.586ZM37.2493 18.428C37.4263 18.428 37.5693 18.572 37.5693 18.748C37.5693 18.925 37.4263 19.066 37.2493 19.066C37.0723 19.066 36.9313 18.925 36.9313 18.748C36.9313 18.572 37.0723 18.428 37.2493 18.428ZM38.3563 18.723C38.3673 18.722 38.3773 18.722 38.3883 18.723C38.6413 18.723 38.8473 18.929 38.8473 19.1819C38.8473 19.4349 38.6413 19.6389 38.3883 19.6389C38.1353 19.6389 37.9313 19.4349 37.9313 19.1819C37.9303 18.941 38.1163 18.74 38.3563 18.723ZM39.4483 19.8519C39.6253 19.8519 39.7663 19.9929 39.7673 20.1699C39.7663 20.3459 39.6253 20.4899 39.4483 20.4899C39.2723 20.4899 39.1283 20.3459 39.1283 20.1699C39.1283 19.9929 39.2723 19.8519 39.4483 19.8519ZM37.4913 20.0589C37.4993 20.0579 37.5053 20.0579 37.5133 20.0589C37.6893 20.0589 37.8333 20.2019 37.8333 20.3789C37.8333 20.5549 37.6893 20.6969 37.5133 20.6969C37.3363 20.6969 37.1923 20.5549 37.1923 20.3789C37.1923 20.2109 37.3233 20.0699 37.4913 20.0589ZM38.2723 20.8869C38.6533 20.8869 38.9603 21.1959 38.9603 21.5759C38.9613 21.9569 38.6533 22.2649 38.2723 22.2659C37.8923 22.2649 37.5843 21.9569 37.5853 21.5759C37.5853 21.1959 37.8923 20.8869 38.2723 20.8869ZM40.2313 21.0489C40.6123 21.0489 40.9223 21.3569 40.9213 21.7379C40.9213 22.1179 40.6123 22.4279 40.2313 22.4279C39.8513 22.4279 39.5443 22.1179 39.5443 21.7379C39.5433 21.3569 39.8513 21.0489 40.2313 21.0489ZM38.6243 22.8239H38.6423C38.7683 22.8239 38.8683 22.9269 38.8683 23.0529C38.8673 23.1779 38.7673 23.2789 38.6423 23.2789C38.5163 23.2789 38.4143 23.1779 38.4133 23.0529C38.4133 22.9329 38.5043 22.8329 38.6243 22.8239ZM40.6223 23.1229C41.1423 23.1229 41.5653 23.5439 41.5653 24.0639C41.5663 24.5849 41.1433 25.0079 40.6223 25.0079C40.1023 25.0069 39.6823 24.5849 39.6833 24.0639C39.6833 23.5449 40.1033 23.1239 40.6223 23.1229ZM38.6343 23.7909H38.6653C38.9183 23.7909 39.1243 23.9969 39.1243 24.2499C39.1243 24.5029 38.9183 24.7089 38.6653 24.7089C38.4123 24.7089 38.2083 24.5029 38.2083 24.2499C38.2073 24.0089 38.3933 23.8079 38.6343 23.7909ZM41.7923 24.9099H41.8023C41.8823 24.9099 41.9473 24.9739 41.9483 25.0549C41.9483 25.1359 41.8833 25.2009 41.8023 25.2009C41.7213 25.2009 41.6553 25.1359 41.6553 25.0549C41.6563 24.9779 41.7163 24.9149 41.7923 24.9099ZM41.3923 25.5799C41.7723 25.5799 42.0813 25.8869 42.0813 26.2679C42.0813 26.6479 41.7723 26.9569 41.3923 26.9569C41.0113 26.9569 40.7043 26.6479 40.7043 26.2679C40.7043 25.8869 41.0113 25.5799 41.3923 25.5799ZM38.7963 25.6699C38.8083 25.6689 38.8213 25.6689 38.8333 25.6699C39.1243 25.6699 39.3603 25.9059 39.3603 26.1969C39.3593 26.4879 39.1243 26.7229 38.8333 26.7229C38.5423 26.7229 38.3073 26.4879 38.3063 26.1969C38.3053 25.9199 38.5193 25.6889 38.7963 25.6699ZM39.7693 26.8979H39.7823C39.8803 26.8979 39.9593 26.9759 39.9603 27.0739C39.9603 27.1728 39.8813 27.2538 39.7823 27.2538C39.6833 27.2538 39.6023 27.1728 39.6033 27.0739C39.6033 26.9809 39.6753 26.9049 39.7693 26.8979ZM42.6323 27.2228C42.6373 27.2218 42.6443 27.2218 42.6493 27.2228C42.7753 27.2218 42.8783 27.3248 42.8783 27.4508C42.8773 27.5758 42.7753 27.6778 42.6493 27.6778C42.5243 27.6778 42.4223 27.5758 42.4213 27.4508C42.4203 27.3308 42.5123 27.2308 42.6323 27.2228ZM41.1203 27.4258H41.1423C41.3183 27.4258 41.4623 27.5678 41.4623 27.7438C41.4623 27.9208 41.3183 28.0638 41.1423 28.0638C40.9653 28.0638 40.8213 27.9208 40.8213 27.7438C40.8213 27.5758 40.9523 27.4378 41.1203 27.4258ZM39.2263 28.2518C39.6063 28.2518 39.9133 28.5588 39.9133 28.9388C39.9133 29.3198 39.6063 29.6288 39.2263 29.6288C38.8453 29.6288 38.5383 29.3198 38.5383 28.9388C38.5383 28.5588 38.8453 28.2518 39.2263 28.2518ZM42.5463 28.3868C43.0663 28.3858 43.4873 28.8078 43.4873 29.3278C43.4883 29.8488 43.0673 30.2698 42.5463 30.2698C42.0263 30.2688 41.6043 29.8478 41.6043 29.3278C41.6053 28.8088 42.0263 28.3868 42.5463 28.3868Z" fill="#333333"/>
</svg>

<?xml version="1.0" encoding="UTF-8" standalone="no"?>
<!-- Created with Inkscape (http://www.inkscape.org/) -->
<svg id="svg8" xmlns:rdf="http://www.w3.org/1999/02/22-rdf-syntax-ns#" xmlns="http://www.w3.org/2000/svg" xmlns:osb="http://www.openswatchbook.org/uri/2009/osb" height="48" width="48" version="1.1" xmlns:cc="http://creativecommons.org/ns#" viewBox="0 0 12.7 12.7" xmlns:dc="http://purl.org/dc/elements/1.1/">
 <title id="title4753">UIO-icon</title>
 <metadata id="metadata5">
  <rdf:RDF>
   <cc:Work rdf:about="">
    <dc:format>image/svg+xml</dc:format>
    <dc:type rdf:resource="http://purl.org/dc/dcmitype/StillImage"/>
    <dc:title>UIO-icon</dc:title>
    <dc:creator>
     <cc:Agent>
      <dc:title>Joaquín Urbano</dc:title>
     </cc:Agent>
    </dc:creator>
    <dc:rights>
     <cc:Agent>
      <dc:title>GPL</dc:title>
     </cc:Agent>
    </dc:rights>
   </cc:Work>
  </rdf:RDF>
 </metadata>
 <g id="layer1" fill="#333" transform="translate(0,-284.3)">
  <path id="rect951" d="m0.13281 0c-0.073448 0-0.13281 0.059362-0.13281 0.13281v47.734c-1.8504e-17 0.074 0.059362 0.133 0.13281 0.133h47.734c0.074 0 0.133-0.059 0.133-0.133v-47.734c0-0.073638-0.059-0.133-0.133-0.133h-47.734zm37.269 4c3.453 0.0005 6.252 2.799 6.252 6.252 0.001 3.454-2.798 6.253-6.252 6.254-3.454 0-6.256-2.8-6.256-6.254 0.001-3.4538 2.803-6.2526 6.256-6.252zm-14.209 10.018c1.193-0.005 2.389 0.084 3.614 0.24 3.616 0.903 7.075 4.544 7.156 8.787-0.01 4.382 0.038 8.179-0.008 18.629-0.002 3.213-5.322 3.017-5.293 0-0.195-2.952-0.089-9.327-0.037-14.043 0.037-3.404-1.379-3.907-2.17-3.945-20.447-2.103-2.837 9.029 0.295 15.224 0.769 1.841-0.009 4.377-1.648 4.942-1.655 0.02-16.605 0.212-17.905 0.132-4.2588-0.024-4.1831-6.271-0.1228-6.271h10.52c-3.989-3.916-7.287-6.284-10.488-10.748-1.7005-2.254-0.0185-5.032 2.0073-7.043 2.9557-2.908 6.5507-4.819 10.487-5.574 1.211-0.225 2.4-0.325 3.593-0.33zm13.996 2.916c0.006-0.001 0.013-0.001 0.018 0 0.126-0.001 0.227 0.102 0.227 0.228-0.001 0.125-0.102 0.227-0.227 0.227s-0.228-0.102-0.228-0.227c-0.001-0.12 0.091-0.22 0.21-0.228zm0.762 0.652c0.126 0 0.229 0.102 0.229 0.228 0 0.127-0.103 0.229-0.229 0.229s-0.229-0.102-0.228-0.229c-0.001-0.126 0.102-0.228 0.228-0.228zm-0.701 0.842c0.177 0 0.32 0.144 0.32 0.32 0 0.177-0.143 0.318-0.32 0.318s-0.318-0.141-0.318-0.318c0-0.176 0.141-0.32 0.318-0.32zm1.107 0.295c0.011-0.001 0.021-0.001 0.032 0 0.253 0 0.459 0.206 0.459 0.459s-0.206 0.457-0.459 0.457-0.457-0.204-0.457-0.457c-0.001-0.241 0.185-0.442 0.425-0.459zm1.092 1.129c0.177 0 0.318 0.141 0.319 0.318-0.001 0.176-0.142 0.32-0.319 0.32-0.176 0-0.32-0.144-0.32-0.32 0-0.177 0.144-0.318 0.32-0.318zm-1.957 0.207c0.008-0.001 0.014-0.001 0.022 0 0.176 0 0.32 0.143 0.32 0.32 0 0.176-0.144 0.318-0.32 0.318-0.177 0-0.321-0.142-0.321-0.318 0-0.168 0.131-0.309 0.299-0.32zm0.781 0.828c0.381 0 0.688 0.309 0.688 0.689 0.001 0.381-0.307 0.689-0.688 0.69-0.38-0.001-0.688-0.309-0.687-0.69 0-0.38 0.307-0.689 0.687-0.689zm1.959 0.162c0.381 0 0.691 0.308 0.69 0.689 0 0.38-0.309 0.69-0.69 0.69-0.38 0-0.687-0.31-0.687-0.69-0.001-0.381 0.307-0.689 0.687-0.689zm-1.607 1.775h0.018c0.126 0 0.226 0.103 0.226 0.229-0.001 0.125-0.101 0.226-0.226 0.226-0.126 0-0.228-0.101-0.229-0.226 0-0.12 0.091-0.22 0.211-0.229zm1.998 0.299c0.52 0 0.943 0.421 0.943 0.941 0.001 0.521-0.422 0.944-0.943 0.944-0.52-0.001-0.94-0.423-0.939-0.944 0-0.519 0.42-0.94 0.939-0.941zm-1.988 0.668h0.031c0.253 0 0.459 0.206 0.459 0.459s-0.206 0.459-0.459 0.459-0.457-0.206-0.457-0.459c-0.001-0.241 0.185-0.442 0.426-0.459zm3.158 1.119h0.01c0.08 0 0.145 0.064 0.146 0.145 0 0.081-0.065 0.146-0.146 0.146s-0.147-0.065-0.147-0.146c0.001-0.077 0.061-0.14 0.137-0.145zm-0.4 0.67c0.38 0 0.689 0.307 0.689 0.688 0 0.38-0.309 0.689-0.689 0.689-0.381 0-0.688-0.309-0.688-0.689 0-0.381 0.307-0.688 0.688-0.688zm-2.596 0.09c0.012-0.001 0.025-0.001 0.037 0 0.291 0 0.527 0.236 0.527 0.527-0.001 0.291-0.236 0.526-0.527 0.526s-0.526-0.235-0.527-0.526c-0.001-0.277 0.213-0.508 0.49-0.527zm0.973 1.228h0.013c0.098 0 0.177 0.078 0.178 0.176 0 0.099-0.079 0.18-0.178 0.18s-0.18-0.081-0.179-0.18c0-0.093 0.072-0.169 0.166-0.176zm2.863 0.325c0.005-0.001 0.012-0.001 0.017 0 0.126-0.001 0.229 0.102 0.229 0.228-0.001 0.125-0.103 0.227-0.229 0.227-0.125 0-0.227-0.102-0.228-0.227-0.001-0.12 0.091-0.22 0.211-0.228zm-1.512 0.203h0.022c0.176 0 0.32 0.142 0.32 0.318 0 0.177-0.144 0.32-0.32 0.32-0.177 0-0.321-0.143-0.321-0.32 0-0.168 0.131-0.306 0.299-0.318zm-1.894 0.826c0.38 0 0.687 0.307 0.687 0.687 0 0.381-0.307 0.69-0.687 0.69-0.381 0-0.688-0.309-0.688-0.69 0-0.38 0.307-0.687 0.688-0.687zm3.32 0.135c0.52-0.001 0.941 0.421 0.941 0.941 0.001 0.521-0.42 0.942-0.941 0.942-0.52-0.001-0.942-0.422-0.942-0.942 0.001-0.519 0.422-0.941 0.942-0.941z" fill-rule="evenodd" transform="matrix(.26458 0 0 .26458 0 284.3)"/>
 </g>
</svg>
